NCOLS 65 
NROWS 55 
XLLCORNER -87.5 
YLLCORNER 25 
CELLSIZE 0.1 
NODATA_value -9999 
-9999.000000000000000 -9999 -9999 -9999 3 -9999 -9999 -9999 -9999 -9999 6 4 4 1 -9999 -9999 -9999 -9999 -9999 -9999 -9999 -9999 -9999 -9999 -9999 -9999 -9999 -9999 -9999 -9999 -9999 -9999 -9999 -9999 -9999 -9999 -9999 -9999 -9999 -9999 -9999 -9999 -9999 -9999 -9999 -9999 -9999 -9999 -9999 -9999 -9999 -9999 -9999 -9999 -9999 -9999 -9999 -9999 -9999 -9999 -9999 10 19 19 22
-9999 -9999 5 5 2 2 11 15 15 14 11 10 -9999 -9999 -9999 -9999 -9999 -9999 -9999 -9999 -9999 -9999 -9999 -9999 -9999 -9999 -9999 -9999 -9999 -9999 -9999 -9999 -9999 -9999 -9999 -9999 -9999 -9999 -9999 -9999 -9999 -9999 -9999 -9999 -9999 -9999 -9999 -9999 -9999 -9999 -9999 -9999 -9999 -9999 -9999 -9999 -9999 -9999 -9999 -9999 -9999 8 17 20 23
13 15 20 25 26 27 25 26 26 26 28 29 30 27 21 14 -9999 1 -9999 -9999 -9999 -9999 -9999 -9999 -9999 -9999 -9999 -9999 -9999 -9999 -9999 -9999 -9999 -9999 -9999 -9999 -9999 -9999 -9999 -9999 -9999 -9999 -9999 -9999 -9999 -9999 -9999 -9999 -9999 -9999 -9999 -9999 -9999 -9999 -9999 -9999 -9999 -9999 1 -9999 -9999 5 17 19 24
22 22 25 28 29 29 33 33 31 32 32 33 33 32 27 25 13 1 -9999 -9999 -9999 -9999 -9999 -9999 -9999 -9999 -9999 -9999 -9999 -9999 -9999 -9999 -9999 -9999 -9999 -9999 -9999 -9999 -9999 -9999 -9999 -9999 -9999 -9999 -9999 -9999 -9999 -9999 -9999 -9999 -9999 -9999 -9999 -9999 -9999 -9999 -9999 -9999 -9999 -9999 -9999 -9999 16 20 23
26 29 33 32 51 87 110 99 62 52 49 48 39 36 31 32 26 23 14 -9999 -9999 -9999 -9999 -9999 -9999 -9999 -9999 -9999 -9999 -9999 -9999 -9999 2 3 2 1 -9999 -9999 -9999 -9999 -9999 -9999 -9999 -9999 -9999 -9999 -9999 -9999 -9999 -9999 -9999 -9999 -9999 -9999 -9999 -9999 -9999 -9999 -9999 -9999 -9999 -9999 16 16 22
33 30 33 43 79 128 132 121 95 80 61 58 48 41 33 34 29 27 22 15 -9999 -9999 -9999 -9999 -9999 -9999 -9999 -9999 -9999 -9999 -9999 -9999 4 5 4 3 1 -9999 -9999 -9999 -9999 -9999 -9999 -9999 -9999 -9999 -9999 -9999 -9999 -9999 -9999 -9999 -9999 -9999 -9999 -9999 -9999 -9999 -9999 -9999 -9999 -9999 17 17 21
35 45 81 97 187 181 160 149 124 110 85 79 60 47 41 40 35 33 26 24 8 9 -9999 -9999 -9999 -9999 -9999 -9999 1 5 7 5 9 8 8 8 6 5 1 -9999 -9999 -9999 -9999 -9999 -9999 -9999 -9999 -9999 -9999 -9999 -9999 -9999 -9999 -9999 -9999 -9999 -9999 -9999 -9999 1 -9999 -9999 10 17 20
45 64 137 184 205 196 175 164 141 130 107 95 64 49 43 42 37 34 28 25 11 7 -9999 -9999 -9999 1 -9999 -9999 6 8 11 10 12 11 11 11 8 7 3 -9999 -9999 -9999 -9999 -9999 -9999 -9999 -9999 -9999 -9999 -9999 -9999 -9999 -9999 -9999 -9999 -9999 -9999 -9999 -9999 -9999 -9999 -9999 8 18 19
66 74 248 261 255 245 224 210 182 168 137 122 67 65 46 43 38 34 27 25 14 8 9 4 3 3 8 8 16 17 19 19 19 18 16 16 13 12 8 6 1 -9999 -9999 -9999 -9999 -9999 -9999 -9999 -9999 -9999 -9999 -9999 -9999 -9999 -9999 -9999 -9999 -9999 -9999 -9999 -9999 -9999 -9999 14 20
75 92 291 304 307 295 267 250 214 196 158 140 103 88 59 44 39 35 26 23 14 11 11 10 5 8 14 16 19 21 20 21 20 20 20 18 15 13 9 7 2 -9999 -9999 -9999 -9999 -9999 -9999 -9999 -9999 -9999 -9999 -9999 -9999 -9999 -9999 -9999 -9999 -9999 -9999 -9999 -9999 -9999 -9999 2 21
268 353 433 464 528 611 455 395 315 277 221 196 147 119 75 61 43 39 28 23 26 27 25 23 14 15 24 26 26 27 25 24 22 22 20 20 17 16 12 11 4 2 -9999 -9999 -9999 -9999 -9999 -9999 -9999 -9999 -9999 -9999 -9999 -9999 -9999 -9999 -9999 -9999 -9999 -9999 -9999 -9999 -9999 -9999 20
413 470 551 563 646 684 473 432 362 328 263 237 186 158 92 69 54 47 42 36 33 30 28 26 24 25 27 28 30 31 27 25 24 23 21 20 18 17 14 13 6 4 1 -9999 -9999 -9999 -9999 -9999 -9999 -9999 -9999 -9999 -9999 -9999 -9999 -9999 -9999 -9999 -9999 -9999 -9999 -9999 -9999 -9999 17
1010 939 793 765 802 716 516 471 404 378 329 304 254 231 189 165 119 97 69 67 47 41 35 33 31 30 31 33 33 32 29 28 26 25 23 22 20 20 15 14 9 8 4 2 -9999 -9999 -9999 -9999 -9999 -9999 -9999 -9999 -9999 -9999 -9999 -9999 -9999 -9999 -9999 3 -9999 -9999 -9999 -9999 -9999
1215 1113 900 857 809 682 529 483 416 391 343 323 278 256 212 193 147 104 103 90 51 43 37 36 33 32 34 35 34 32 29 28 27 27 25 24 21 20 16 14 11 9 5 4 -9999 -9999 -9999 -9999 -9999 -9999 -9999 -9999 -9999 -9999 -9999 -9999 -9999 -9999 -9999 -9999 -9999 -9999 -9999 -9999 -9999
1564 1378 1058 953 762 672 549 506 437 409 363 344 308 292 252 229 194 182 151 124 59 50 44 42 40 42 40 39 37 35 31 30 29 30 29 27 23 21 19 17 14 12 9 7 4 3 1 -9999 -9999 -9999 -9999 -9999 -9999 -9999 -9999 -9999 -9999 -9999 -9999 -9999 -9999 -9999 -9999 -9999 -9999
1657 1405 1060 937 752 668 556 514 445 416 370 351 317 300 265 245 203 189 164 146 93 74 58 55 45 42 42 41 39 37 33 32 29 31 29 28 24 23 20 19 16 13 10 8 7 6 1 1 -9999 -9999 -9999 -9999 -9999 -9999 -9999 -9999 -9999 -9999 -9999 -9999 -9999 -9999 -9999 -9999 -9999
1524 1362 1036 919 753 683 578 540 471 441 389 367 333 318 286 269 228 207 180 167 125 100 96 82 55 49 47 45 43 40 36 35 33 31 30 30 27 24 22 21 19 17 13 11 8 6 2 1 -9999 -9999 -9999 -9999 -9999 -9999 -9999 -9999 -9999 -9999 -9999 -9999 -9999 -9999 -9999 -9999 -9999
1483 1317 1033 925 767 703 602 560 489 457 402 379 342 327 295 279 240 219 187 176 142 114 111 100 64 53 49 49 45 43 39 37 36 34 33 31 27 26 22 22 20 19 14 12 8 6 2 1 -9999 -9999 -9999 -9999 -9999 -9999 -9999 -9999 -9999 -9999 -9999 -9999 -9999 -9999 -9999 -9999 -9999
1482 1331 1065 965 817 756 660 618 544 507 440 414 371 351 317 301 266 246 209 197 176 165 142 129 90 65 54 55 51 49 42 36 36 38 34 32 29 28 25 23 22 20 16 13 9 7 3 2 -9999 -9999 -9999 -9999 -9999 -9999 -9999 -9999 -9999 -9999 -9999 -9999 -9999 -9999 -9999 -9999 -9999
1524 1373 1113 1011 853 792 696 658 581 544 473 443 393 371 330 313 279 260 219 205 184 174 152 139 105 79 55 57 54 52 45 38 34 38 35 33 31 29 26 24 22 20 17 15 10 8 3 2 -9999 -9999 -9999 -9999 -9999 -9999 -9999 -9999 -9999 -9999 -9999 -9999 -9999 -9999 -9999 -9999 -9999
2272 1750 1271 1150 971 905 803 761 685 647 575 540 477 445 387 362 321 301 260 238 202 190 171 161 123 102 64 62 62 59 51 45 38 37 37 36 33 31 28 27 23 21 18 16 11 8 3 2 -9999 -9999 -9999 -9999 -9999 -9999 -9999 -9999 -9999 -9999 -9999 -9999 -9999 -9999 -9999 -9999 -9999
2617 2248 1425 1267 1071 993 877 833 751 715 641 604 538 506 442 412 358 336 293 272 226 206 178 169 132 112 74 64 65 62 55 48 44 37 38 38 34 33 29 27 23 22 19 16 12 9 3 2 -9999 -9999 -9999 -9999 -9999 -9999 -9999 -9999 -9999 -9999 -9999 -9999 -9999 -9999 -9999 -9999 -9999
2633 2669 2658 2491 1969 1895 1603 1260 923 866 792 756 688 657 584 550 482 449 384 357 301 273 224 199 165 146 94 80 70 68 62 55 48 42 38 39 37 35 32 30 26 24 21 18 12 9 3 1 -9999 -9999 -9999 -9999 -9999 -9999 -9999 -9999 -9999 -9999 -9999 -9999 -9999 -9999 -9999 -9999 -9999
2646 2673 2722 2748 2793 2814 2557 2257 1176 974 872 839 777 744 681 647 571 534 455 423 354 321 263 235 188 168 115 87 73 72 64 57 49 47 42 41 39 37 32 30 26 25 21 18 12 10 2 -9999 -9999 -9999 -9999 -9999 -9999 -9999 -9999 -9999 -9999 -9999 -9999 -9999 -9999 -9999 -9999 -9999 -9999
2772 2786 2824 2831 2828 2834 2902 2931 2878 2419 1461 1387 1097 1034 936 874 760 718 632 587 487 442 357 318 252 226 170 141 91 80 71 65 53 49 46 45 41 39 35 32 28 27 23 20 15 11 4 -9999 -9999 -9999 -9999 -9999 -9999 -9999 -9999 -9999 -9999 -9999 -9999 -9999 -9999 -9999 -9999 -9999 -9999
2818 2840 2857 2865 2870 2869 2903 2943 2989 2950 2861 2776 1725 1489 1210 1062 863 805 713 664 561 507 408 365 282 253 202 173 114 95 78 68 57 52 49 48 42 41 36 33 29 28 24 21 14 11 4 -9999 2 -9999 -9999 -9999 -9999 -9999 -9999 -9999 -9999 -9999 -9999 -9999 -9999 -9999 -9999 -9999 -9999
2885 2903 2939 2950 2964 2964 2981 2981 2996 3033 3080 3109 3155 3172 3066 2693 1597 1181 894 814 685 624 502 441 342 298 232 208 159 127 86 79 63 58 55 52 47 44 40 37 33 30 25 22 14 10 -9999 -9999 -9999 3 3 -9999 -9999 -9999 -9999 -9999 -9999 -9999 -9999 -9999 -9999 -9999 -9999 -9999 -9999
2898 2919 2978 2982 2995 3005 3015 3019 3021 3025 3080 3113 3163 3177 3194 3176 2603 1975 1049 924 745 678 546 480 361 314 243 216 171 141 96 80 65 58 57 54 48 45 41 38 33 32 26 23 15 12 6 2 -9999 5 2 -9999 -9999 -9999 -9999 -9999 -9999 -9999 -9999 -9999 -9999 -9999 -9999 -9999 -9999
2888 2921 2977 3008 3042 3053 3061 3079 3100 3095 3070 3085 3160 3183 3206 3218 3224 3202 2365 1621 896 796 647 563 402 344 251 224 179 147 113 95 72 63 61 57 50 48 45 42 36 34 29 26 18 14 8 5 6 3 -9999 -9999 -9999 -9999 -9999 -9999 -9999 -9999 -9999 -9999 -9999 -9999 -9999 -9999 -9999
2900 2937 2996 3011 3041 3057 3065 3076 3110 3126 3130 3112 3150 3176 3212 3221 3235 3237 3102 2385 1016 873 707 617 428 366 259 227 178 148 120 102 77 66 64 58 53 50 45 43 38 36 31 28 19 16 9 5 4 -9999 -9999 -9999 -9999 -9999 -9999 -9999 -9999 -9999 -9999 -9999 -9999 -9999 -9999 -9999 -9999
2922 2961 3009 3013 3023 3033 3047 3057 3092 3114 3166 3177 3183 3179 3225 3235 3243 3250 3250 3176 1396 1084 826 733 484 404 269 233 183 154 128 117 81 76 67 63 56 52 47 46 42 40 33 30 23 19 12 10 -9999 -9999 -9999 -9999 -9999 -9999 -9999 -9999 -9999 -9999 -9999 -9999 -9999 -9999 -9999 -9999 -9999
2874 2904 2973 2985 3007 3010 3047 3058 3090 3114 3159 3175 3204 3199 3215 3223 3238 3247 3256 3245 1936 1232 890 795 527 430 276 237 183 160 133 123 86 82 71 68 57 53 49 47 44 41 35 32 25 21 13 12 6 1 -9999 -9999 -9999 -9999 -9999 -9999 -9999 -9999 -9999 -9999 -9999 -9999 -9999 -9999 -9999
2836 2869 2953 2986 3011 3010 3027 3038 3070 3087 3136 3161 3203 3213 3232 3231 3229 3241 3256 3258 2669 1646 1082 943 647 495 292 242 190 173 147 136 105 91 76 73 59 55 52 51 46 44 38 35 28 25 19 16 11 8 -9999 -9999 -9999 -9999 -9999 -9999 -9999 -9999 -9999 -9999 -9999 -9999 -9999 -9999 -9999
2861 2884 2956 2983 3002 2996 3021 3038 3074 3090 3136 3163 3205 3213 3229 3235 3239 3236 3249 3255 3228 2684 1267 1052 721 537 299 239 198 181 154 137 114 96 80 75 62 55 54 52 46 44 39 36 30 27 22 20 13 10 -9999 -9999 -9999 -9999 -9999 -9999 -9999 -9999 -9999 -9999 -9999 -9999 -9999 -9999 -9999
2888 2890 2919 2931 2950 2970 3019 3032 3068 3082 3144 3168 3194 3199 3219 3221 3234 3245 3264 3265 3270 3272 1751 1343 905 661 322 244 207 186 160 147 127 109 88 81 67 60 58 55 49 46 42 39 35 31 27 23 17 14 3 -9999 -9999 -9999 -9999 -9999 -9999 -9999 -9999 -9999 -9999 -9999 -9999 -9999 -9999
2877 2879 2905 2921 2943 2969 3005 3029 3102 3125 3157 3166 3187 3194 3217 3218 3238 3248 3260 3266 3278 3273 2662 1703 1061 785 336 251 210 194 165 155 131 116 90 83 69 62 59 56 50 48 44 41 37 34 28 26 19 16 10 -9999 -9999 -9999 -9999 -9999 -9999 -9999 -9999 -9999 -9999 -9999 -9999 -9999 1
2852 2844 2864 2879 2921 2956 3043 3097 3148 3163 3178 3190 3215 3220 3247 3258 3281 3286 3297 3305 3310 3310 3284 3135 2447 1522 406 276 219 197 173 168 136 126 93 86 76 68 61 58 54 51 45 42 37 35 31 27 22 20 14 10 -9999 -9999 -9999 -9999 -9999 -9999 -9999 -9999 -9999 -9999 -9999 -9999 -9999
2838 2835 2871 2880 2910 2945 3062 3093 3141 3157 3172 3182 3198 3208 3236 3248 3267 3271 3287 3291 3307 3308 3306 3291 3084 2025 452 289 219 201 182 172 144 127 105 89 78 73 63 59 54 51 45 42 37 36 31 28 23 21 15 12 2 2 -9999 -9999 -9999 -9999 -9999 -9999 -9999 -9999 -9999 -9999 -9999
2842 2860 2911 2922 2945 2964 3055 3089 3114 3128 3149 3162 3173 3182 3209 3213 3226 3236 3248 3255 3273 3280 3295 3296 3293 2572 592 324 218 200 193 181 152 144 124 110 84 78 65 62 55 52 46 44 39 35 32 29 24 22 17 14 3 1 -9999 -9999 -9999 -9999 -9999 -9999 -9999 -9999 -9999 -9999 -9999
2879 2884 2946 2951 2966 2990 3054 3086 3110 3129 3165 3181 3187 3190 3208 3215 3230 3233 3247 3255 3274 3279 3291 3294 3272 2349 656 353 226 206 197 186 157 151 128 117 87 78 65 62 56 51 47 45 40 37 32 29 24 22 19 16 7 2 -9999 -9999 -9999 -9999 -9999 -9999 -9999 -9999 -9999 -9999 -9999
2966 2970 2989 2999 3019 3019 3069 3096 3127 3145 3167 3179 3199 3201 3202 3204 3226 3235 3257 3270 3289 3295 3310 3318 3299 2737 990 484 232 213 202 191 168 159 135 125 98 83 68 64 56 55 50 47 41 39 33 31 27 25 20 16 11 7 1 3 -9999 -9999 -9999 -9999 -9999 -9999 -9999 -9999 -9999
3000 3014 3033 3049 3048 3048 3069 3096 3119 3144 3165 3176 3200 3206 3201 3203 3226 3237 3258 3272 3291 3295 3315 3322 3288 3044 1122 581 237 216 205 195 172 161 139 126 99 84 67 64 59 57 52 48 42 40 33 31 28 26 18 15 12 10 8 8 -9999 -9999 -9999 -9999 -9999 -9999 -9999 -9999 -9999
3069 3077 3098 3105 3101 3101 3073 3052 3070 3090 3110 3128 3162 3182 3204 3225 3244 3253 3270 3281 3297 3301 3310 3304 3294 2186 1282 836 253 223 210 198 175 165 143 129 100 85 68 65 60 58 53 50 44 41 37 34 28 26 20 18 16 15 13 12 3 -9999 -9999 -9999 -9999 -9999 -9999 -9999 -9999
3092 3104 3111 3121 3126 3118 3116 3095 3090 3111 3142 3128 3179 3196 3230 3243 3252 3262 3277 3283 3288 3294 3305 3311 3318 3094 1348 948 278 224 212 201 177 166 144 130 100 88 68 66 61 58 54 52 46 42 38 36 29 25 22 21 19 18 13 11 4 -9999 -9999 -9999 -9999 -9999 -9999 -9999 -9999
3136 3139 3165 3172 3180 3182 3179 3185 3176 3178 3176 3148 3184 3209 3238 3250 3258 3270 3282 3280 3290 3292 3310 3317 3318 3310 1510 1179 359 248 215 206 179 168 146 135 104 94 69 69 63 61 56 53 47 44 41 37 31 30 26 24 20 18 14 12 7 1 -9999 -9999 -9999 -9999 -9999 -9999 -9999
3162 3169 3195 3201 3207 3208 3210 3216 3209 3201 3189 3161 3186 3203 3237 3252 3258 3266 3274 3282 3287 3291 3298 3304 3315 3310 1584 1174 410 266 216 206 177 171 147 139 106 95 70 70 64 61 57 54 48 46 41 38 35 32 27 26 21 19 16 14 9 4 -9999 -9999 -9999 -9999 -9999 -9999 -9999
3235 3231 3248 3257 3256 3243 3239 3244 3234 3233 3209 3177 3164 3182 3216 3223 3237 3239 3255 3258 3275 3280 3291 3307 3322 3321 1594 1197 572 342 214 204 169 163 146 138 113 99 75 73 66 63 58 56 51 48 43 40 36 35 29 28 23 21 17 15 12 8 2 2 -9999 -9999 -9999 -9999 -9999
3260 3269 3281 3289 3280 3266 3255 3255 3250 3250 3217 3193 3173 3172 3200 3213 3236 3239 3253 3256 3271 3278 3292 3297 3326 3327 1612 1294 625 386 215 195 166 164 146 138 113 104 79 73 66 63 59 57 53 49 44 40 36 35 30 27 23 21 18 16 12 9 3 4 2 1 -9999 -9999 -9999
3298 3303 3329 3337 3327 3313 3297 3287 3274 3265 3234 3219 3202 3197 3220 3228 3233 3245 3262 3274 3281 3286 3293 3302 3325 3336 1628 1350 932 560 236 189 167 162 145 136 113 103 79 73 67 64 60 58 54 51 45 41 35 34 31 28 25 23 19 18 13 10 7 7 5 3 -9999 -9999 -9999
3323 3324 3347 3358 3346 3345 3311 3301 3285 3272 3240 3235 3216 3214 3220 3231 3241 3248 3266 3277 3283 3290 3300 3307 3322 3330 2803 1803 1109 697 266 196 166 160 145 136 114 103 78 73 67 64 61 59 54 52 46 43 35 33 31 30 26 24 20 19 14 11 8 8 6 5 1 -9999 -9999
3373 3370 3375 3378 3368 3350 3315 3308 3287 3274 3256 3242 3217 3233 3232 3237 3254 3261 3278 3287 3292 3301 3310 3316 3328 3337 3344 2463 1412 1000 338 216 162 156 143 135 115 103 79 75 70 67 62 60 55 52 47 44 36 34 31 30 27 25 20 18 14 12 10 9 7 6 3 1 -9999
3384 3383 3380 3380 3355 3332 3302 3296 3269 3257 3237 3239 3233 3248 3231 3237 3252 3260 3276 3283 3289 3294 3308 3312 3327 3338 3349 3036 1755 1219 401 270 157 156 141 132 115 103 79 75 69 67 62 60 55 53 47 44 38 35 30 28 26 24 20 18 15 13 11 10 7 6 4 2 -9999
3388 3384 3377 3372 3343 3333 3317 3305 3294 3285 3272 3280 3271 3276 3269 3261 3276 3282 3292 3305 3311 3313 3331 3334 3338 3344 3359 3369 2001 1501 574 375 165 152 137 129 114 103 77 75 70 67 63 61 56 53 47 44 40 37 33 30 27 25 20 18 15 15 13 11 7 6 4 -9999 -9999
3396 3384 3376 3372 3360 3343 3326 3321 3309 3301 3289 3292 3287 3288 3283 3278 3289 3294 3298 3309 3319 3325 3337 3338 3345 3355 3372 3359 1842 1552 793 427 195 149 137 128 113 103 76 74 69 67 62 61 56 53 47 44 40 38 34 32 27 25 21 19 17 15 12 11 7 6 4 1 -9999
3391 3384 3383 3381 3373 3351 3319 3313 3299 3293 3294 3292 3285 3286 3286 3286 3289 3290 3292 3298 3304 3316 3330 3332 3343 3348 3368 3380 3158 2401 1420 802 329 199 133 128 111 99 75 75 69 66 63 61 54 51 45 43 39 37 33 30 26 24 22 21 17 16 12 11 8 6 4 2 1
