NCOLS 39 
NROWS 33 
XLLCORNER -87.5 
YLLCORNER 25 
CELLSIZE 0.166666666666667 
NODATA_value -9999 
-9999.000000000000000 -9999 -9999 -9999 -9999 -9999 -9999 -9999 -9999 -9999 -9999 -9999 -9999 -9999 -9999 -9999 -9999 -9999 -9999 -9999 -9999 -9999 -9999 -9999 -9999 -9999 -9999 -9999 -9999 -9999 -9999 -9999 -9999 -9999 -9999 -9999 6 18 20
18 21 26 29 29 29 29 31 26 15 3 -9999 -9999 -9999 -9999 -9999 -9999 -9999 -9999 -9999 -9999 -9999 -9999 -9999 -9999 -9999 -9999 -9999 -9999 -9999 -9999 -9999 -9999 -9999 -9999 -9999 -9999 16 21
26 30 32 92 74 51 46 36 32 30 23 -9999 -9999 -9999 -9999 -9999 -9999 -9999 -9999 1 -9999 -9999 -9999 -9999 -9999 -9999 -9999 -9999 -9999 -9999 -9999 -9999 -9999 -9999 -9999 -9999 -9999 14 18
32 39 72 144 123 96 71 48 37 35 30 13 -9999 -9999 -9999 -9999 -9999 -9999 -9999 5 6 4 1 -9999 -9999 -9999 -9999 -9999 -9999 -9999 -9999 -9999 -9999 -9999 -9999 -9999 -9999 9 18
47 97 168 173 151 126 101 55 43 40 35 22 9 -9999 -9999 -9999 -9999 5 8 10 10 9 7 -9999 -9999 -9999 -9999 -9999 -9999 -9999 -9999 -9999 -9999 -9999 -9999 -9999 -9999 1 18
124 292 341 319 269 225 183 104 72 45 38 20 15 16 13 14 19 22 22 21 20 18 15 7 -9999 -9999 -9999 -9999 -9999 -9999 -9999 -9999 -9999 -9999 -9999 -9999 -9999 -9999 7
376 477 524 498 393 321 256 153 97 59 46 30 29 28 23 24 28 29 27 23 21 20 17 10 4 -9999 -9999 -9999 -9999 -9999 -9999 -9999 -9999 -9999 -9999 -9999 -9999 -9999 -9999
843 753 716 539 445 382 329 227 180 125 87 55 42 35 31 29 32 32 29 25 23 21 20 13 8 4 -9999 -9999 -9999 -9999 -9999 -9999 -9999 -9999 -9999 -9999 -9999 -9999 -9999
1249 996 877 564 471 408 359 277 233 193 151 86 49 39 36 35 36 34 30 28 27 24 21 14 11 7 4 -9999 -9999 -9999 -9999 -9999 -9999 -9999 -9999 -9999 -9999 -9999 -9999
1489 1109 873 595 514 448 395 321 290 254 212 155 109 88 66 46 43 41 37 31 30 29 26 21 18 14 10 3 1 -9999 -9999 -9999 -9999 -9999 -9999 -9999 -9999 -9999 -9999
1395 1100 890 640 554 484 423 340 308 275 236 176 144 124 99 51 50 46 41 36 33 31 27 22 20 16 12 3 1 -9999 -9999 -9999 -9999 -9999 -9999 -9999 -9999 -9999 -9999
1428 1150 946 700 619 544 473 372 332 299 263 196 175 153 126 56 56 52 46 37 35 32 29 23 21 18 13 4 2 -9999 -9999 -9999 -9999 -9999 -9999 -9999 -9999 -9999 -9999
1789 1295 1062 797 714 638 566 439 383 338 300 220 193 173 148 69 61 59 51 37 37 35 32 26 22 19 14 4 2 -9999 -9999 -9999 -9999 -9999 -9999 -9999 -9999 -9999 -9999
2655 2679 2534 2195 1558 985 851 717 650 581 509 374 312 256 206 119 79 71 65 47 41 40 37 29 25 22 17 5 -9999 -9999 -9999 -9999 -9999 -9999 -9999 -9999 -9999 -9999 -9999
2753 2788 2805 2879 2867 2135 1291 962 888 790 691 518 428 349 279 170 114 82 72 51 46 43 40 31 27 24 18 6 -9999 -9999 -9999 -9999 -9999 -9999 -9999 -9999 -9999 -9999 -9999
2844 2870 2892 2912 2956 2996 2965 2216 1890 1191 919 677 569 460 364 225 170 115 84 56 50 47 42 33 29 26 20 5 -9999 1 -9999 -9999 -9999 -9999 -9999 -9999 -9999 -9999 -9999
2901 2946 2970 2994 2997 3019 3068 3167 3155 2803 1839 827 683 557 432 252 201 150 101 61 57 51 46 36 32 27 21 5 -9999 -9999 2 -9999 -9999 -9999 -9999 -9999 -9999 -9999 -9999
2925 2993 3021 3059 3079 3114 3140 3159 3208 3227 3234 2060 1003 775 590 286 217 164 129 74 67 57 52 43 38 33 27 12 6 1 -9999 -9999 -9999 -9999 -9999 -9999 -9999 -9999 -9999
2915 2980 3005 3042 3066 3103 3154 3191 3208 3231 3245 2926 1412 912 700 306 223 170 136 81 73 64 55 46 42 36 30 14 10 -9999 -9999 -9999 -9999 -9999 -9999 -9999 -9999 -9999 -9999
2854 2933 2993 3027 3049 3083 3128 3210 3220 3224 3242 3230 1982 1111 841 330 227 177 149 94 78 69 56 49 44 39 33 19 14 8 -9999 -9999 -9999 -9999 -9999 -9999 -9999 -9999 -9999
2882 2933 2979 3012 3047 3081 3124 3207 3223 3235 3241 3259 3105 1777 1028 356 228 190 162 109 85 73 60 51 46 41 36 25 19 13 1 -9999 -9999 -9999 -9999 -9999 -9999 -9999 -9999
2854 2869 2900 3014 3091 3149 3171 3211 3230 3253 3274 3299 3305 3285 2672 552 256 208 176 130 101 83 70 57 52 46 41 32 26 20 15 -9999 1 -9999 -9999 -9999 -9999 -9999 -9999
2836 2871 2893 3032 3102 3141 3158 3192 3224 3240 3256 3285 3300 3306 3301 857 274 209 188 139 119 91 77 59 53 47 41 33 27 22 17 2 1 -9999 -9999 -9999 -9999 -9999 -9999
2866 2915 2940 3035 3094 3120 3151 3183 3202 3217 3231 3260 3277 3290 3295 933 302 213 198 151 132 106 82 61 54 47 43 33 28 23 19 3 -9999 -9999 -9999 -9999 -9999 -9999 -9999
2943 2960 2992 3050 3098 3133 3168 3200 3204 3216 3233 3273 3292 3305 3314 1172 363 221 203 162 139 117 88 62 55 51 45 35 29 25 21 7 1 -9999 -9999 -9999 -9999 -9999 -9999
3086 3101 3116 3101 3070 3090 3120 3180 3211 3238 3253 3285 3295 3307 3312 1514 662 245 214 171 149 123 93 65 59 55 50 38 33 27 22 17 14 10 -9999 -9999 -9999 -9999 -9999
3125 3143 3159 3164 3164 3163 3173 3196 3233 3252 3267 3281 3288 3300 3316 2049 879 289 219 173 150 127 98 67 61 57 52 41 35 30 26 19 15 11 2 -9999 -9999 -9999 -9999
3183 3203 3218 3214 3221 3212 3203 3187 3225 3249 3253 3276 3285 3294 3307 2304 970 364 221 172 152 132 102 69 63 59 53 43 37 34 29 21 17 13 8 -9999 -9999 -9999 -9999
3249 3261 3275 3247 3247 3242 3224 3173 3202 3225 3238 3261 3276 3289 3309 2166 1086 481 231 166 150 132 107 72 65 60 55 45 39 36 31 22 19 15 10 3 1 -9999 -9999
3337 3353 3365 3322 3303 3280 3250 3215 3220 3233 3248 3281 3290 3300 3313 3199 1872 992 353 163 147 131 109 73 66 62 59 48 41 35 32 25 21 17 13 8 6 2 -9999
3378 3378 3378 3314 3297 3272 3251 3233 3236 3242 3257 3286 3294 3306 3316 3344 2434 1347 483 158 145 129 109 74 68 63 59 49 42 36 32 26 21 17 14 9 7 4 -9999
3387 3381 3371 3314 3297 3279 3261 3265 3260 3257 3271 3298 3303 3319 3330 3352 3161 1798 756 158 142 126 109 74 69 64 60 49 43 38 33 26 21 17 15 10 7 4 -9999
3389 3379 3373 3328 3319 3304 3291 3287 3285 3283 3292 3305 3319 3332 3339 3364 2963 1895 1195 188 142 125 108 73 68 63 60 48 43 39 35 26 22 19 16 10 7 5 1
